X: 1
T: If There Weren't Any Women In The World
M: 4/4
L: 1/8
R: barndance
K: Gmaj
|:B>c|d>ed>B G>AB>G|E2 _E2 D2 G>A|B>d^c>d e>dB>G|A6 B>c|
d>ed>B G>AB>G|E2 _E2 D2 G>A|B>dB>G A>^GA>B|1 G6:|
2 G5 G (3Bcd||
e3 f g3 f|e2 d2 d2 G>A|B>d^c>d e>dB>G|A6 B>c|
d>ed>B G>AB>G|E2 _E2 D2 G>A|B>dB>G A>^GA>B|1 G5 G (3Bcd:|
2 G6||
